findly-builder/apps/searchassist/src/assets/icons/editor/align-right.svg

<svg width="13" height="13" viewBox="0 0 13 13" fill="none" xmlns="http://www.w3.org/2000/svg">
<path d="M0.645508 0.962402V2.22823H12.0379V0.962402H0.645508ZM3.81006 3.49405V4.75987H12.0379V3.49405H3.81006ZM0.645508 6.02569V7.29152H12.0379V6.02569H0.645508ZM3.81006 8.55734V9.82316H12.0379V8.55734H3.81006ZM0.645508 11.089V12.3548H12.0379V11.089H0.645508Z" fill="black"/>
</svg>

<svg width="13" height="13" fill="none" xmlns="http://www.w3.org/2000/svg"><path d="M.646.962v1.266h11.392V.962H.646ZM3.81 3.494V4.76h8.228V3.494H3.81ZM.646 6.026v1.266h11.392V6.026H.646ZM3.81 8.557v1.266h8.228V8.557H3.81ZM.646 11.09v1.266h11.392V11.09H.646Z" fill="#000"/></svg>
